svg/fluentui-system-icons/ic_fluent_cloud_archive_24_filled.svg

<svg width="24" height="24" viewBox="0 0 24 24" fill="none" xmlns="http://www.w3.org/2000/svg">
<path d="M6.07981 9.01936C6.54808 6.17188 9.02022 4 12 4C14.9798 4 17.4519 6.17189 17.9202 9.01936C19.6949 9.1837 21.1709 10.3786 21.7439 12H13C11.8954 12 11 12.8954 11 14V15C11 15.7403 11.4022 16.3866 12 16.7324V18H6.5C4.01472 18 2 15.9853 2 13.5C2 11.1564 3.79155 9.23125 6.07981 9.01936ZM13 13C12.4477 13 12 13.4477 12 14V15C12 15.5523 12.4477 16 13 16H22C22.5523 16 23 15.5523 23 15V14C23 13.4477 22.5523 13 22 13H13ZM22 17H13V21C13 22.1046 13.8954 23 15 23H20C21.1046 23 22 22.1046 22 21V17ZM15.5 18.5C15.5 18.2239 15.7239 18 16 18H19C19.2761 18 19.5 18.2239 19.5 18.5C19.5 18.7761 19.2761 19 19 19H16C15.7239 19 15.5 18.7761 15.5 18.5Z" fill="#212121"/>
</svg>

<svg xmlns="http://www.w3.org/2000/svg" width="24" height="24"><path d="M6.08 9.02a6.001 6.001 0 0 1 11.84 0A4.504 4.504 0 0 1 21.744 12H13a2 2 0 0 0-2 2v1a2 2 0 0 0 1 1.732V18H6.5a4.5 4.5 0 0 1-.42-8.98ZM13 13a1 1 0 0 0-1 1v1a1 1 0 0 0 1 1h9a1 1 0 0 0 1-1v-1a1 1 0 0 0-1-1h-9Zm9 4h-9v4a2 2 0 0 0 2 2h5a2 2 0 0 0 2-2v-4Zm-6.5 1.5a.5.5 0 0 1 .5-.5h3a.5.5 0 0 1 0 1h-3a.5.5 0 0 1-.5-.5Z"/></svg>
